X:2299
T:Bumper?????????
M:2/4
L:1/8
S:Armitt MS
K:G major
 d2|dB GB|cA FA|fg fg|ef ge|dB GB|cA FA|G2B2|1G2||2G4||:A4|Bc e2
|A4|Bce2|A4|B2ce|dc BA|G4:||:B4|Bd cB|G4|B>c BA|G2G|g2g|fd df|1g3g|
|2g4||


